X:51
T:Shloymele, malkele
M:3/4
Z:SG
K:Dm
"Dm"D2F2A2|d2A2F2|"Gm"(3ABA (G4|G4) (3GFE|"Gm"G2F2D2|G2F2D2|"Dm"  (~F6|F4) (3FGF|
"F"C2F2A2|"D7"c2B2A2|"Gm"cd (G4|G4) GA| G2A2B2|"C7"d2c2B2|"A7"(~A6|A4) (3ABc:|
|:"Dm"f4 gf|f2e2d2|~f4 ff|f2e2d2|f2e2d2|"E7"f2e2d2|"A7"(~e6|e4) ef|"Gm"~g4 ga|
"A7"g2f2e2|"Dm"f4 gf| f2 e2 d2| "Gm6" e2e2e2|"A7"e2f2e2|1"Dm"(d6|d4)(3def:|2"Dm"(d6|d6)|]
